app/images/Red-X.svg

<?xml version="1.0" encoding="UTF-8" standalone="no"?>
<svg
   xmlns:dc="http://purl.org/dc/elements/1.1/"
   xmlns:cc="http://creativecommons.org/ns#"
   xmlns:rdf="http://www.w3.org/1999/02/22-rdf-syntax-ns#"
   xmlns:svg="http://www.w3.org/2000/svg"
   xmlns="http://www.w3.org/2000/svg"
   xmlns:sodipodi="http://sodipodi.sourceforge.net/DTD/sodipodi-0.dtd"
   xmlns:inkscape="http://www.inkscape.org/namespaces/inkscape"
   stroke="#000000"
   viewBox="0 0 32 32"
   width="100%"
   height="100%"
   id="svg2"
   version="1.1"
   inkscape:version="0.48.4 r9939"
   sodipodi:docname="X (copy).svg">
  <metadata
     id="metadata12">
    <rdf:RDF>
      <cc:Work
         rdf:about="">
        <dc:format>image/svg+xml</dc:format>
        <dc:type
           rdf:resource="http://purl.org/dc/dcmitype/StillImage" />
        <dc:title></dc:title>
      </cc:Work>
    </rdf:RDF>
  </metadata>
  <defs
     id="defs10" />
  <sodipodi:namedview
     pagecolor="#ffffff"
     bordercolor="#666666"
     borderopacity="1"
     objecttolerance="10"
     gridtolerance="10"
     guidetolerance="10"
     inkscape:pageopacity="0"
     inkscape:pageshadow="2"
     inkscape:window-width="958"
     inkscape:window-height="1023"
     id="namedview8"
     showgrid="false"
     inkscape:zoom="7.375"
     inkscape:cx="16"
     inkscape:cy="16"
     inkscape:window-x="0"
     inkscape:window-y="0"
     inkscape:window-maximized="0"
     inkscape:current-layer="svg2" />
  <line
     stroke-width="4"
     x1="2"
     x2="30"
     y1="2"
     y2="30"
     id="line4" />
  <line
     x1="2"
     x2="30"
     y1="30"
     y2="2"
     id="line6"
     stroke-width="4" />
  <path
     style="fill:#ff0000;stroke:none"
     d="M 1.9983939,29.890041 0.67984183,28.566522 6.9839916,22.263466 13.288141,15.960409 7.0184993,9.68968 0.748857,3.4189502 2.1016976,2.0610142 3.4545383,0.70307818 9.7272692,6.9747211 16,13.246364 l 6.272731,-6.2716429 6.272731,-6.27164292 1.35284,1.35793602 1.352841,1.357936 -6.269642,6.2707298 -6.269642,6.270729 6.304948,6.303855 6.304946,6.303854 -1.355932,1.355932 -1.355932,1.355932 -6.304944,-6.30385 L 16,18.672279 9.7282725,24.942919 c -3.44945,3.448852 -6.3031372,6.27064 -6.3415269,6.27064 -0.03839,0 -0.663148,-0.595583 -1.3883517,-1.323518 z"
     id="path3757"
     inkscape:connector-curvature="0" />
</svg>

<svg xmlns="http://www.w3.org/2000/svg" stroke="#000" viewBox="0 0 32 32"><path d="M2 2l28 28"/><path d="M2 30L30 2"/><path d="M1.998 29.89L.68 28.567l6.304-6.304 6.304-6.303-6.27-6.27-6.27-6.27 1.354-1.36L3.455.704l6.272 6.272L16 13.245l6.273-6.27L28.545.703l1.353 1.358 1.353 1.36-6.268 6.27-6.27 6.27 6.305 6.304 6.305 6.304-1.356 1.356-1.356 1.356-6.305-6.304L16 18.672l-6.272 6.27c-3.45 3.45-6.303 6.272-6.34 6.272-.04 0-.664-.596-1.39-1.324z" fill="#f00"/></svg>
